lib/flags/ao-angola.svg

<svg xmlns="http://www.w3.org/2000/svg" fill="none" aria-hidden="true" viewBox="0 0 42 30"><g id="Country=AO - Angola, Size=sm (36x24)" filter="url(#filter0_dd_91_29847)"><g clip-path="url(#clip0_91_29847)"><g id="flag"><mask id="mask0_91_29847" width="36" height="24" x="3" y="2" maskUnits="userSpaceOnUse" style="mask-type:alpha"><rect id="mask" width="36" height="24" x="3" y="2" fill="white"/></mask><g mask="url(#mask0_91_29847)"><g id="contents"><path id="background" fill="#1D1D1D" fill-rule="evenodd" d="M3 2V26H39V2H3Z" clip-rule="evenodd"/><mask id="mask1_91_29847" width="36" height="24" x="3" y="2" maskUnits="userSpaceOnUse" style="mask-type:alpha"><path id="background_2" fill="white" fill-rule="evenodd" d="M3 2V26H39V2H3Z" clip-rule="evenodd"/></mask><g mask="url(#mask1_91_29847)"><path id="top" fill="#F50100" fill-rule="evenodd" d="M3 2V14H39V2H3Z" clip-rule="evenodd"/><g id="mark"><path id="Path 108" fill="#FFEA42" d="M14.1747 7.89655L14.6548 6.4917C18.2551 7.4684 20.4255 9.18064 21.0361 11.6234C21.4411 13.2439 21.257 14.6924 20.602 15.9822C20.1353 16.9012 19.5425 17.5873 18.6902 18.3596C17.2689 19.6475 14.9311 20.4693 12.8205 20.1208C11.3493 19.878 9.99406 19.4192 8.75977 18.7454L9.62091 17.4933C10.6814 18.0722 11.8463 18.4665 13.1208 18.6769C14.6449 18.9285 16.4518 18.2933 17.5149 17.33C18.2431 16.6701 18.7292 16.1075 19.1003 15.3769C19.6105 14.3723 19.7534 13.2476 19.4272 11.9426C18.9614 10.0789 17.2539 8.7319 14.1747 7.89655Z"/><g id="Star" filter="url(#filter1_d_91_29847)"><path fill="#FCFF01" fill-rule="evenodd" d="M14.0771 11.4644L13.0089 12.1217L13.3857 11.0202L12.3487 10.3249L13.6498 10.3014L14.0771 9.21436L14.5043 10.3014L15.8054 10.3249L14.7684 11.0202L15.1453 12.1217L14.0771 11.4644Z" clip-rule="evenodd"/><path fill="#FFEA42" fill-rule="evenodd" d="M14.0771 11.4644L13.0089 12.1217L13.3857 11.0202L12.3487 10.3249L13.6498 10.3014L14.0771 9.21436L14.5043 10.3014L15.8054 10.3249L14.7684 11.0202L15.1453 12.1217L14.0771 11.4644Z" clip-rule="evenodd"/></g><g id="Path 109" filter="url(#filter2_d_91_29847)"><path fill="#FCFF01" fill-rule="evenodd" d="M11.5657 11.8599C11.5657 11.8599 9.67133 14.3284 11.163 15.2309C12.6547 16.1334 20.5423 19.9376 20.5423 19.9376C20.5423 19.9376 22.1721 19.9293 22.404 20.2374C22.6359 20.5456 23.1182 20.9081 23.3216 20.9081C23.5249 20.9081 24.0501 20.5816 24.0501 20.5816C24.0501 20.5816 24.4595 20.2838 24.0501 19.9376C23.6407 19.5913 21.4767 18.4058 21.4767 18.4058C21.4767 18.4058 13.0303 13.6143 12.312 13.1399C11.5938 12.6656 11.5657 11.8599 11.5657 11.8599Z" clip-rule="evenodd"/><path fill="#FFEA42" fill-rule="evenodd" d="M11.5657 11.8599C11.5657 11.8599 9.67133 14.3284 11.163 15.2309C12.6547 16.1334 20.5423 19.9376 20.5423 19.9376C20.5423 19.9376 22.1721 19.9293 22.404 20.2374C22.6359 20.5456 23.1182 20.9081 23.3216 20.9081C23.5249 20.9081 24.0501 20.5816 24.0501 20.5816C24.0501 20.5816 24.4595 20.2838 24.0501 19.9376C23.6407 19.5913 21.4767 18.4058 21.4767 18.4058C21.4767 18.4058 13.0303 13.6143 12.312 13.1399C11.5938 12.6656 11.5657 11.8599 11.5657 11.8599Z" clip-rule="evenodd"/></g><path id="Path 110" fill="#FFEA42" fill-rule="evenodd" d="M16.1758 6.07422L15.7373 6.95707L17.1753 7.51046L17.5831 6.62738L16.1758 6.07422ZM19.1151 7.48416L18.3233 8.14451L19.4038 9.15337L20.1673 8.48212L19.1151 7.48416ZM20.1968 10.1365L21.2092 9.7879L21.7642 11.0636L20.7734 11.4317L20.1968 10.1365ZM22.1688 12.6361L21.0837 12.6054L21.0451 13.9979L22.119 14.0032L22.1688 12.6361ZM20.828 15.1941L21.8212 15.5839L21.1989 16.8348L20.2055 16.4723L20.828 15.1941ZM20.2391 18.202L19.4962 17.4982L18.3612 18.4587L19.1164 19.1373L20.2391 18.202ZM17.2611 19.1671L17.6533 20.067L16.2182 20.5604L15.804 19.6797L17.2611 19.1671ZM14.4562 20.9214L14.4907 19.9568L12.9242 19.9226L12.9182 20.8771L14.4562 20.9214ZM11.5855 19.7283L11.147 20.6111L9.73973 20.058L10.1475 19.1749L11.5855 19.7283Z" clip-rule="evenodd"/></g></g></g></g></g></g></g><defs><filter id="filter0_dd_91_29847" width="42" height="30" x="0" y="0" color-interpolation-filters="sRGB" filterUnits="userSpaceOnUse"><feFlood flood-opacity="0" result="BackgroundImageFix"/><feColorMatrix in="SourceAlpha" result="hardAlpha" values="0 0 0 0 0 0 0 0 0 0 0 0 0 0 0 0 0 0 127 0"/><feOffset dy="1"/><feGaussianBlur stdDeviation="1"/><feColorMatrix values="0 0 0 0 0.0627451 0 0 0 0 0.0941176 0 0 0 0 0.156863 0 0 0 0.06 0"/><feBlend in2="BackgroundImageFix" result="effect1_dropShadow_91_29847"/><feColorMatrix in="SourceAlpha" result="hardAlpha" values="0 0 0 0 0 0 0 0 0 0 0 0 0 0 0 0 0 0 127 0"/><feOffset dy="1"/><feGaussianBlur stdDeviation="1.5"/><feColorMatrix values="0 0 0 0 0.0627451 0 0 0 0 0.0941176 0 0 0 0 0.156863 0 0 0 0.1 0"/><feBlend in2="effect1_dropShadow_91_29847" result="effect2_dropShadow_91_29847"/><feBlend in="SourceGraphic" in2="effect2_dropShadow_91_29847" result="shape"/></filter><filter id="filter1_d_91_29847" width="3.45703" height="2.90723" x="12.3486" y="9.21436" color-interpolation-filters="sRGB" filterUnits="userSpaceOnUse"><feFlood flood-opacity="0" result="BackgroundImageFix"/><feColorMatrix in="SourceAlpha" result="hardAlpha" values="0 0 0 0 0 0 0 0 0 0 0 0 0 0 0 0 0 0 127 0"/><feOffset/><feColorMatrix values="0 0 0 0 0 0 0 0 0 0 0 0 0 0 0 0 0 0 0.2 0"/><feBlend in2="BackgroundImageFix" result="effect1_dropShadow_91_29847"/><feBlend in="SourceGraphic" in2="effect1_dropShadow_91_29847" result="shape"/></filter><filter id="filter2_d_91_29847" width="13.6416" height="9.0481" x="10.5903" y="11.8599" color-interpolation-filters="sRGB" filterUnits="userSpaceOnUse"><feFlood flood-opacity="0" result="BackgroundImageFix"/><feColorMatrix in="SourceAlpha" result="hardAlpha" values="0 0 0 0 0 0 0 0 0 0 0 0 0 0 0 0 0 0 127 0"/><feOffset/><feColorMatrix values="0 0 0 0 0 0 0 0 0 0 0 0 0 0 0 0 0 0 0.2 0"/><feBlend in2="BackgroundImageFix" result="effect1_dropShadow_91_29847"/><feBlend in="SourceGraphic" in2="effect1_dropShadow_91_29847" result="shape"/></filter><clipPath id="clip0_91_29847"><rect width="36" height="24" x="3" y="2" fill="white" rx="2"/></clipPath></defs></svg>

<svg xmlns="http://www.w3.org/2000/svg" fill="none" aria-hidden="true" viewBox="0 0 42 30"><g filter="url(#a)"><g clip-path="url(#b)"><mask id="c" width="36" height="24" x="3" y="2" maskUnits="userSpaceOnUse" style="mask-type:alpha"><path fill="#fff" d="M3 2h36v24H3z"/></mask><g mask="url(#c)"><path fill="#1D1D1D" fill-rule="evenodd" d="M3 2v24h36V2H3Z" clip-rule="evenodd"/><mask id="d" width="36" height="24" x="3" y="2" maskUnits="userSpaceOnUse" style="mask-type:alpha"><path fill="#fff" fill-rule="evenodd" d="M3 2v24h36V2H3Z" clip-rule="evenodd"/></mask><g mask="url(#d)"><path fill="#F50100" fill-rule="evenodd" d="M3 2v12h36V2H3Z" clip-rule="evenodd"/><path fill="#FFEA42" d="m14.175 7.897.48-1.405c3.6.976 5.77 2.689 6.381 5.131.405 1.62.221 3.07-.434 4.36-.467.918-1.06 1.604-1.912 2.377-1.421 1.288-3.759 2.11-5.87 1.76a12.741 12.741 0 0 1-4.06-1.375l.86-1.252a10.97 10.97 0 0 0 3.5 1.184c1.525.252 3.332-.384 4.395-1.347.728-.66 1.214-1.222 1.585-1.953.51-1.005.653-2.13.327-3.434-.466-1.864-2.173-3.211-5.252-4.046Z"/><g fill-rule="evenodd" clip-rule="evenodd" filter="url(#e)"><path fill="#FCFF01" d="m14.077 11.464-1.068.658.377-1.102-1.037-.695 1.3-.024.428-1.087.427 1.087 1.301.024-1.037.695.377 1.102-1.068-.658Z"/><path fill="#FFEA42" d="m14.077 11.464-1.068.658.377-1.102-1.037-.695 1.3-.024.428-1.087.427 1.087 1.301.024-1.037.695.377 1.102-1.068-.658Z"/></g><g fill-rule="evenodd" clip-rule="evenodd" filter="url(#f)"><path fill="#FCFF01" d="M11.566 11.86s-1.895 2.468-.403 3.37c1.492.903 9.38 4.708 9.38 4.708s1.63-.009 1.861.3c.232.308.714.67.918.67.203 0 .728-.326.728-.326s.41-.298 0-.644c-.41-.347-2.573-1.532-2.573-1.532s-8.447-4.792-9.165-5.266c-.718-.474-.746-1.28-.746-1.28Z"/><path fill="#FFEA42" d="M11.566 11.86s-1.895 2.468-.403 3.37c1.492.903 9.38 4.708 9.38 4.708s1.63-.009 1.861.3c.232.308.714.67.918.67.203 0 .728-.326.728-.326s.41-.298 0-.644c-.41-.347-2.573-1.532-2.573-1.532s-8.447-4.792-9.165-5.266c-.718-.474-.746-1.28-.746-1.28Z"/></g><path fill="#FFEA42" fill-rule="evenodd" d="m16.176 6.074-.439.883 1.438.553.408-.883-1.407-.553Zm2.94 1.41-.793.66 1.08 1.01.764-.672-1.052-.998Zm1.08 2.652 1.013-.348.555 1.276-.99.368-.577-1.296Zm1.973 2.5-1.085-.03-.039 1.392 1.074.005.05-1.367Zm-1.341 2.558.993.39-.622 1.25-.994-.362.623-1.278Zm-.589 3.008-.743-.704-1.135.96.755.68 1.123-.936Zm-2.978.965.392.9-1.435.493-.414-.88 1.457-.513Zm-2.805 1.754.035-.964-1.567-.034-.006.954 1.538.044Zm-2.87-1.193-.439.883-1.407-.553.408-.883 1.438.553Z" clip-rule="evenodd"/></g></g></g></g><defs><filter id="a" width="42" height="30" x="0" y="0" color-interpolation-filters="sRGB" filterUnits="userSpaceOnUse"><feFlood flood-opacity="0" result="BackgroundImageFix"/><feColorMatrix in="SourceAlpha" result="hardAlpha" values="0 0 0 0 0 0 0 0 0 0 0 0 0 0 0 0 0 0 127 0"/><feOffset dy="1"/><feGaussianBlur stdDeviation="1"/><feColorMatrix values="0 0 0 0 0.0627451 0 0 0 0 0.0941176 0 0 0 0 0.156863 0 0 0 0.06 0"/><feBlend in2="BackgroundImageFix" result="effect1_dropShadow_91_29847"/><feColorMatrix in="SourceAlpha" result="hardAlpha" values="0 0 0 0 0 0 0 0 0 0 0 0 0 0 0 0 0 0 127 0"/><feOffset dy="1"/><feGaussianBlur stdDeviation="1.5"/><feColorMatrix values="0 0 0 0 0.0627451 0 0 0 0 0.0941176 0 0 0 0 0.156863 0 0 0 0.1 0"/><feBlend in2="effect1_dropShadow_91_29847" result="effect2_dropShadow_91_29847"/><feBlend in="SourceGraphic" in2="effect2_dropShadow_91_29847" result="shape"/></filter><filter id="e" width="3.457" height="2.907" x="12.349" y="9.214" color-interpolation-filters="sRGB" filterUnits="userSpaceOnUse"><feFlood flood-opacity="0" result="BackgroundImageFix"/><feColorMatrix in="SourceAlpha" result="hardAlpha" values="0 0 0 0 0 0 0 0 0 0 0 0 0 0 0 0 0 0 127 0"/><feOffset/><feColorMatrix values="0 0 0 0 0 0 0 0 0 0 0 0 0 0 0 0 0 0 0.2 0"/><feBlend in2="BackgroundImageFix" result="effect1_dropShadow_91_29847"/><feBlend in="SourceGraphic" in2="effect1_dropShadow_91_29847" result="shape"/></filter><filter id="f" width="13.642" height="9.048" x="10.59" y="11.86" color-interpolation-filters="sRGB" filterUnits="userSpaceOnUse"><feFlood flood-opacity="0" result="BackgroundImageFix"/><feColorMatrix in="SourceAlpha" result="hardAlpha" values="0 0 0 0 0 0 0 0 0 0 0 0 0 0 0 0 0 0 127 0"/><feOffset/><feColorMatrix values="0 0 0 0 0 0 0 0 0 0 0 0 0 0 0 0 0 0 0.2 0"/><feBlend in2="BackgroundImageFix" result="effect1_dropShadow_91_29847"/><feBlend in="SourceGraphic" in2="effect1_dropShadow_91_29847" result="shape"/></filter><clipPath id="b"><rect width="36" height="24" x="3" y="2" fill="#fff" rx="2"/></clipPath></defs></svg>
